X:1
T: The Duchess of Atholl's Slipper
C:Niel Gow
R:Strathspey
Q: 128
K:F
M:4/4
L:1/16
|:C3F A3F cA3 AF3|C3F A3F DG3 G4|C3F A3F cF3 Af3|c3B A3G FF3 F4|
C3F A3F cA3 AF3|C3F A3F DG3 G4|C3F A3F cF3 Af3|c3B A3G FF3 F4|
cf3 f4 c3f a3f|g3f a3f dg3 g4|cf3 f4 c3f a3f|g3f a3f cf3 f4|
cf3 f4 c3f a3f|g3f a3f dg3 g4|fa3 df3 cf3 Af3|c3B A3G FF3 F4:|
